X:1047
T:Are You Ready Yet?
R:reel
C:Tom Doorley
D:Dan\'u: Think before You Think
Z:id:hn-reel-1047
M:C|
L:1/8
K:Em
B2AF EGFE | FDFA dAFA | BAAF EGFE | FGFD ~B3A |
B2AF ~E3G | FDFA dAFA | BAAF EGFE | FGFD ~B3A :|
|: Beed ~e3f | gefa gfeg | fdBA B2fB | gBfB edBA |
Beed ~e3f | gefa ~g3a | bage aged | Bgfd ~e3d :|
|: BAGF ~G3B | dBAG FEDF | E2BA (3B^cd eg | e~f3 e2fe |
edBe dBAF | BAGF EFGA | BedB A=cBA | GBFB E4 :|

